X:1
T:Title
%%score { ( 1 3 ) | ( 2 4 5 ) }
L:1/8
Q:1/4=110
M:3/4
K:G
V:1 treble nm="Grand Piano"
V:3 treble 
V:2 bass 
V:4 bass 
V:5 bass 
V:1
 [B,D]2 [CE]2 [Ec]2 | [DB]4 [DG]2 | [CA]6 | [B,G]4 z2 | G3 A B2 | c2 B2 [Dd]2 | [DA]6- | [DA]4 z2 | %8
w: Will~L.~Thompson * *||||||||
 [G,B,G]2 [CF]2 [D=F]2 | E6[K:bass] | [^CA]2 [CA]3 [EG] | F6[K:bass] | [DG]3 A B2 | A4 [G^c]2 | %14
w: ||||||
 [Fd]6- | [Fd]4 z2 | [Bd]3 [Ac] [^GB]2 | [^GB]4 z2 | d6 | c4 z2 | [Ac]3 [^GB] [Ac]2 | %21
w: |||||||
 [Fd]4 [DFA]2 | [DGB]6- | [DGB]4 z2 | [B,DG]2 F2 G2 | B2 c2 d2 | d6 | c4 z2 | B3 A G2 | A4 z2 | %30
w: |||||||||
 [B,G]6- | [B,G]4 z2 | [EG]3 [EG] [EG]2 | [Ec]4 [Ge]2 | d6 | B4 z2 | G3 F G2 | [^CB]2 [CA]2 E2 | %38
w: ||||||||
 A6 | d4 z2 | [Bd]3 ^c [Bd]2 | [ce]2 [Bd]2 z2 | [D,B,DB]3 [_B,^C_B] [=B,D=B]2 | %43
w: |||||
[M:4/4] [DFd]3 c- c2 z2 |[M:3/4] B3 A G2 | A4 z2 | [B,G]6- | [B,G]4 z2 |] %48
w: |||||
V:2
 [G,,G,]2 [G,,G,]2 [G,,G,]2 | [G,,G,]4 [B,,G,]2 | [D,F,]6 | [G,,G,]4 z2 | [G,B,]3 [G,C] [G,D]2 | %5
 [G,E]2 [G,D]2 [B,,G,]2 | [D,F,]3 E, F,2 | D,4 z2 | G,,2 [A,,D,]2 [B,,G,]2 | [C,G,C]6 | %10
 [A,,E,]2 [A,,E,]3 [^C,A,] | [D,A,D]6 | [B,,G,]3 [D,F,D] [G,D]2 | [F,A,D]4 [E,A,]2 | [D,A,]6- | %15
 [D,A,]4 z2 | [E,^G,]3 [E,A,] [E,B,]2 | [E,E]2 D,2 [^G,B,E]2 | [^G,B,E]6 | [A,E]4 z2 | %20
 [D,D]3 [D,D] [D,D]2 | [D,A,]4 D,2 | G,3 F, G,2 | B,2 G,2 E,2 | z2 [A,D]2 [B,D]2 | %25
 [G,D]2 [F,A,D]2[K:treble] [G,B,=F]2 | [^G,B,=F]6 | [A,E]4 z2 | [D,G,D]3 [D,G,C] [E,G,B,]2 | %29
 [D,F,]2 z2 z2 | [G,,D,]6- | [G,,D,]4 z2 | [C,G,]3 [C,G,] [C,G,]2 | [C,G,]4 [C,C]2 | [G,B,G]6 | %35
 [G,DG]4 z2 | [E,A,^C]3 [E,A,C] [E,A,C]2 | [A,,G,]2 [A,,E,]2 [E,A,^C]2 | [D,C]6- | [D,A,CF]4 z2 | %40
 z2 z[K:treble] _B G,2 | z2 G,2 z2 | z2 z ^C, [G,,D,]2 |[M:4/4] A,,3- [A,,E,CE]- [A,,E,CE]2 z2 | %44
[M:3/4] [D,G,D]3 [D,G,C] [E,G,B,]2 | [D,F,]2 z2 z2 | [G,,D,]6- | [G,,D,]4 z2 |] %48
V:3
 x6 | x6 | x6 | x6 | x6 | x6 | z2 z G, A,2 | F,4 z2 | x6 | z2[K:bass] B,,2 _B,,2 | x6 | %11
 z2[K:bass] ^C,2 =C,2 | x6 | x6 | x6 | x6 | x6 | z2 D2 d2 | x6 | x6 | x6 | x6 | x6 | x6 | x6 | x6 | %26
 x6 | x6 | x6 | z2 D,2 [B,G]2 | x6 | x6 | x6 | x6 | x6 | x6 | x6 | x6 | x6 | x6 | x6 | x6 | x6 | %43
[M:4/4] x8 |[M:3/4] x6 | z2 D,2 [B,G]2 | x6 | x6 |] %48
V:4
 x6 | x6 | x6 | x6 | x6 | x6 | x6 | x6 | x6 | x6 | x6 | x6 | x6 | x6 | x6 | x6 | x6 | x6 | x6 | %19
 x6 | x6 | x6 | x6 | x6 | D,6 | x4[K:treble] x2 | x6 | x6 | x6 | C4 [G,,D,]2 | x6 | x6 | x6 | x6 | %34
 x6 | x6 | x6 | x6 | F,6 | x6 | z2 D,2[K:treble] z2 | G,,4 z2 | z2 G,,2 z2 |[M:4/4] F,4 z4 | %44
[M:3/4] x6 | C4 [G,,D,]2 | x6 | x6 |] %48
V:5
 x6 | x6 | x6 | x6 | x6 | x6 | x6 | x6 | x6 | x6 | x6 | x6 | x6 | x6 | x6 | x6 | x6 | x6 | x6 | %19
 x6 | x6 | x6 | x6 | x6 | x6 | x4[K:treble] x2 | x6 | x6 | x6 | x6 | x6 | x6 | x6 | x6 | x6 | x6 | %36
 x6 | x6 | x6 | x6 | G,,4[K:treble] z2 | x6 | G,,,6 |[M:4/4] x8 |[M:3/4] x6 | x6 | x6 | x6 |] %48

